X: 28278
T: Mrs. Major L. Stewart Of The Island Of Java
R: strathspey
M: 4/4
K: Amajor
C/D/|E>DC>B, A,A Ac/d/|e>c AE FBBc|d>e ~fe/d/ c/e/f/g/ ag/f/|
e>cB>A EAA C/D/|E>DC>B, A,A Ac/d/|e>c AE FBBc|
d>e ~fe/d/ c/e/f/g/ ag/f/|(3f/e/d/ (3e/d/c/ (3d/c/B/ (3c/B/A/ EA A2||c/d/|e>cAf d>B Ed|
cAeE ^G(BB)c|~d/c/d/e/ ~f/e/f/g/ b/a/g/f/ e>d|c/e/A/c/ B/d/^G/B/ EAA c/d/|
e>cAf d>Bed|cAEC B,(BB)c|~d/c/d/e/ ~f/e/f/g/ (a/4g/4) (b/a/g/f/) e>d|c/e/A/c/ B/d/^G/B/ EA A2||

